src/icon/entity/present/icon_present_xl_white.svg

<svg xmlns="http://www.w3.org/2000/svg" width="31" height="33" viewBox="0 0 31 33"><g fill="none" fill-rule="evenodd"><path d="M-3-1h36v36H-3z"/><path fill="#FFF" d="M19 25.5l-3.5-3.7-3.5 3.7v-14h7z" opacity=".3"/><path fill="#FFF" d="M29 33V19h2v-8H0v8h2v14h27zM1 12h29v6h-6v1h4v13H3V19h4v-1H1v-6zm23.3-3.9l.6.8c1.2-.8 2-2.2 2.1-3.7.1-1.4-.4-2.6-1.4-3.4-.8-.6-1.6-1-2.6-1-2.2 0-4.8 1.9-7.5 5.4C12.8 2.7 10.2.8 8 .8c-.9 0-1.8.3-2.6 1-1 .8-1.5 2-1.4 3.4.1 1.5.9 2.8 2.1 3.7l.6-.8c-1-.7-1.6-1.7-1.7-2.9-.1-1 .3-2 1-2.5C8.2.9 11.3 2.5 14.7 7l.8 1 .8-1C19.7 2.5 22.8.9 25 2.7c.7.6 1.1 1.5 1 2.5-.1 1.2-.7 2.2-1.7 2.9z"/></g></svg>

<svg xmlns="http://www.w3.org/2000/svg" width="36" height="36" viewBox="0 0 36 36"><g fill="none"><polygon points="0 0 36 0 36 36 0 36" opacity="0"/><g fill="#FFF" transform="translate(2 1)"><polygon points="19 25.5 15.5 21.8 12 25.5 12 11.5 19 11.5" opacity=".3"/><path d="M29,33 L29,19 L31,19 L31,11 L0,11 L0,19 L2,19 L2,33 L29,33 Z M1,12 L30,12 L30,18 L24,18 L24,19 L28,19 L28,32 L3,32 L3,19 L7,19 L7,18 L1,18 L1,12 Z M24.3,8.1 L24.9,8.9 C26.1,8.1 26.9,6.7 27,5.2 C27.1,3.8 26.6,2.6 25.6,1.8 C24.8,1.2 24,0.8 23,0.8 C20.8,0.8 18.2,2.7 15.5,6.2 C12.8,2.7 10.2,0.8 8,0.8 C7.1,0.8 6.2,1.1 5.4,1.8 C4.4,2.6 3.9,3.8 4,5.2 C4.1,6.7 4.9,8 6.1,8.9 L6.7,8.1 C5.7,7.4 5.1,6.4 5,5.2 C4.9,4.2 5.3,3.2 6,2.7 C8.2,0.9 11.3,2.5 14.7,7 L15.5,8 L16.3,7 C19.7,2.5 22.8,0.9 25,2.7 C25.7,3.3 26.1,4.2 26,5.2 C25.9,6.4 25.3,7.4 24.3,8.1 Z"/></g></g></svg>
